X: 41958
T: Wall Nut, The
R: jig
M: 6/8
K: Gmajor
dBG ABF|GDB, G,B,D|CEG DFA|GAB ~A3|
dBG ABF|GDB, G,B,D|CEG DFA|BGG G3:|
gdB gdB|gaf g2^g|ae^c aec|afe dcA|
GDG ~B2B|AEA ~e2e|fgf edc|BGG G3:|

